img/sp-3.svg

<svg width="151" height="118" viewBox="0 0 151 118" fill="none" xmlns="http://www.w3.org/2000/svg">
<g opacity="0.9">
<path d="M149.567 98.351H1.33374C0.571618 98.351 0 97.8584 0 97.2017V1.14936C0 0.492596 0.571618 0 1.33374 0H149.567C150.329 0 150.901 0.492596 150.901 1.14936V97.2017C150.71 97.8584 150.139 98.351 149.567 98.351ZM2.47689 96.2165H148.234V2.29873H2.47689V96.2165Z" fill="#A6ABB8"/>
<path d="M75.9487 56.6245C65.9425 56.6245 57.7617 48.3798 57.7617 38.2954C57.7617 28.2791 65.9425 20.0345 75.9487 20.0345C85.9549 20.0345 94.1356 28.2791 94.1356 38.3635C94.1356 48.4479 85.9549 56.6245 75.9487 56.6245ZM75.9487 20.9202C66.4157 20.9202 58.6406 28.7561 58.6406 38.3635C58.6406 47.971 66.4157 55.8068 75.9487 55.8068C85.4816 55.8068 93.2567 47.971 93.2567 38.3635C93.2567 28.7561 85.4816 20.9202 75.9487 20.9202Z" fill="#B5B8C3"/>
<path d="M75.9502 56.6245C72.7725 56.6245 69.8653 53.6264 68.1075 48.6523C68.0399 48.516 68.1075 48.4479 68.1075 48.3116C68.1751 48.1754 68.2427 48.1072 68.3779 48.1072C68.9188 47.9709 69.2568 47.494 69.3244 47.017C69.392 46.6082 69.2568 46.1994 68.9864 45.8587C68.6483 45.4498 68.1075 45.2454 67.5666 45.3817C67.4314 45.3817 67.3638 45.3817 67.2285 45.3136C67.1609 45.2454 67.0257 45.1773 67.0257 45.041C66.62 42.9287 66.3496 40.6802 66.3496 38.3635C66.3496 35.9105 66.62 33.5257 67.0933 31.2772C67.0933 31.1409 67.1609 31.0728 67.2961 31.0046C67.3638 30.9365 67.499 30.9365 67.6342 30.9365C68.4455 31.1409 69.2568 30.5958 69.392 29.7781C69.392 29.71 69.392 29.6419 69.392 29.5056C69.392 28.8923 68.9864 28.3472 68.4455 28.1428C68.3103 28.0747 68.2427 28.0066 68.1751 27.9384C68.1075 27.8021 68.1075 27.734 68.1751 27.5977C70.0005 22.8281 72.8401 20.0344 75.9502 20.0344C79.1955 20.0344 82.2379 23.1688 83.9957 28.4154C84.131 28.7561 84.1986 29.0968 84.3338 29.4374C85.0775 32.0948 85.4832 35.161 85.4832 38.2954C85.4832 40.6121 85.2803 42.8606 84.8747 44.9729C84.8747 45.1092 84.8071 45.1773 84.6718 45.2454C84.6042 45.3136 84.469 45.3136 84.3338 45.3136C84.1986 45.3136 84.131 45.2454 83.9957 45.2454C83.252 45.2454 82.5759 45.8587 82.5759 46.6763C82.5759 47.2896 82.9816 47.8347 83.5901 48.0391C83.7253 48.1072 83.7929 48.1754 83.8605 48.2435C83.9281 48.3798 83.9281 48.4479 83.8605 48.5842C82.0351 53.6945 79.1278 56.6245 75.9502 56.6245ZM69.054 48.7886C70.6766 53.1494 73.2458 55.8068 75.9502 55.8068C78.6546 55.8068 81.2237 53.2176 82.8464 48.7886C82.1027 48.3798 81.697 47.6303 81.697 46.7445C81.697 45.4498 82.7788 44.3596 84.0634 44.4278C84.4014 42.5199 84.6042 40.4076 84.6042 38.2954C84.6042 35.4336 84.2662 32.5718 83.5901 30.0507C81.0885 30.5277 78.587 30.7321 76.0854 30.7321C74.1923 30.7321 72.2317 30.5958 70.271 30.3232C69.9329 31.2772 69.054 31.8904 68.0399 31.8223C67.6342 33.8664 67.4314 36.0468 67.4314 38.2954C67.4314 40.4076 67.6342 42.4518 67.9722 44.4278C68.6483 44.4278 69.3244 44.7003 69.7977 45.2454C70.2034 45.7905 70.4062 46.4719 70.3386 47.0852C70.0681 47.8347 69.6625 48.4479 69.054 48.7886ZM76.0178 29.8463C78.4517 29.8463 80.8857 29.6419 83.3196 29.233C83.252 29.0286 83.1844 28.8923 83.1168 28.6879C81.4942 23.8501 78.7898 20.9202 75.9502 20.9202C73.3134 20.9202 70.8119 23.3732 69.1892 27.5977C69.8653 28.0066 70.3386 28.6879 70.3386 29.5056C72.2317 29.7781 74.1247 29.8463 76.0178 29.8463Z" fill="#B5B8C3"/>
<path d="M93.6632 38.7724H58.2357C57.9653 38.7724 57.8301 38.568 57.8301 38.3635C57.8301 38.1591 58.0329 37.9547 58.2357 37.9547H93.6632C93.9336 37.9547 94.0688 38.1591 94.0688 38.3635C94.0688 38.568 93.9336 38.7724 93.6632 38.7724Z" fill="#B5B8C3"/>
<path d="M75.9506 56.6245C75.6801 56.6245 75.5449 56.42 75.5449 56.2156V20.4433C75.5449 20.1707 75.7478 20.0344 75.9506 20.0344C76.1534 20.0344 76.3563 20.2388 76.3563 20.4433V56.1475C76.4239 56.42 76.2211 56.6245 75.9506 56.6245Z" fill="#B5B8C3"/>
<path d="M68.0388 31.8906C66.7542 31.8906 65.74 30.8685 65.74 29.5739C64.3202 29.2332 62.8328 28.8244 61.413 28.3474C61.2102 28.2793 61.075 28.0067 61.1426 27.8023C61.2102 27.5979 61.4806 27.4616 61.6835 27.5298C63.1033 28.0067 64.5231 28.4155 65.8753 28.7562C66.2133 27.9386 67.0246 27.3253 67.9712 27.3253C69.1881 27.3253 70.2023 28.3474 70.2699 29.5739C76.8956 30.4597 83.589 29.7783 90.1471 27.5298C90.3499 27.4616 90.6204 27.5979 90.688 27.8023C90.7556 28.0067 90.6204 28.2793 90.4175 28.3474C83.7242 30.6641 76.8956 31.3455 70.1347 30.3915C69.8642 31.2773 68.9853 31.8906 68.0388 31.8906ZM68.0388 28.143C67.3627 28.143 66.8218 28.62 66.6866 29.3013C66.6866 29.3695 66.6866 29.5057 66.6866 29.5739C66.6866 30.3234 67.2951 31.0048 68.1064 31.0048C68.7825 31.0048 69.391 30.5278 69.4586 29.8464C69.4586 29.7783 69.4586 29.7102 69.4586 29.642C69.4586 28.8244 68.7825 28.143 68.0388 28.143Z" fill="#B5B8C3"/>
<path d="M90.2831 48.8569C90.2154 48.8569 90.2154 48.8569 90.1478 48.8569C88.6604 48.3799 87.173 47.903 85.618 47.5623C85.4152 47.4941 85.2123 47.2897 85.2799 47.0172C85.3476 46.7446 85.5504 46.6083 85.8208 46.6765C87.3758 47.0172 88.9309 47.4941 90.4183 47.9711C90.6211 48.0392 90.7563 48.3118 90.6887 48.5162C90.6887 48.7888 90.4859 48.8569 90.2831 48.8569ZM61.6166 48.8569C61.4138 48.8569 61.2786 48.7206 61.2109 48.5844C61.1433 48.3799 61.2786 48.1074 61.4814 48.0392C63.0364 47.4941 64.5914 47.0853 66.0788 46.7446C66.2817 46.6765 66.5521 46.8128 66.6197 47.0853C66.6873 47.2897 66.5521 47.5623 66.2817 47.6304C64.7943 47.9711 63.3068 48.3799 61.7518 48.925C61.6842 48.8569 61.6166 48.8569 61.6166 48.8569ZM69.7297 46.8809C69.5269 46.8809 69.3241 46.7446 69.3241 46.4721C69.2565 46.1995 69.4593 45.9951 69.6621 45.9951C73.8539 45.3818 78.0457 45.3818 82.1699 45.9951C82.4403 46.0632 82.5756 46.2676 82.508 46.4721C82.4403 46.7446 82.2375 46.8809 82.0347 46.8128C78.0457 46.2676 73.9215 46.2676 69.7297 46.8809C69.7974 46.8809 69.7974 46.8809 69.7297 46.8809Z" fill="#B5B8C3"/>
<path d="M83.9276 49.0612C82.643 49.0612 81.6289 48.0392 81.6289 46.7445C81.6289 45.4499 82.643 44.4279 83.9276 44.4279C84.6037 44.4279 85.2122 44.7004 85.6855 45.2455C86.0911 45.7906 86.2939 46.4039 86.2263 47.0852C86.0235 48.2436 85.077 49.0612 83.9276 49.0612ZM83.9276 45.3136C83.1839 45.3136 82.5078 45.9269 82.5078 46.7445C82.5078 47.4941 83.1163 48.1754 83.9276 48.1754C84.6037 48.1754 85.2122 47.6985 85.2798 47.0171C85.3474 46.6083 85.2122 46.1994 84.9418 45.8587C84.7389 45.5181 84.4009 45.3136 83.9276 45.3136Z" fill="#FE1845"/>
<path d="M67.9726 49.0612C66.688 49.0612 65.6738 48.0392 65.6738 46.7445C65.6738 45.4499 66.688 44.4279 67.9726 44.4279C68.6487 44.4279 69.2572 44.7004 69.7305 45.2455C70.1361 45.7906 70.339 46.472 70.2714 47.0852C70.0009 48.2436 69.0544 49.0612 67.9726 49.0612ZM67.9726 45.3136C67.2289 45.3136 66.5528 45.9269 66.5528 46.7445C66.5528 47.4941 67.1613 48.1754 67.9726 48.1754C68.6487 48.1754 69.2572 47.6985 69.3248 47.0171C69.3924 46.6083 69.2572 46.1994 68.9868 45.8587C68.7163 45.5181 68.3783 45.3136 67.9726 45.3136Z" fill="#FE1845"/>
<path d="M42.5603 75.0857C41.2519 74.7261 40.3461 74.007 39.7423 73.1979C37.3268 69.4224 42.8622 62.3208 53.0271 54.8597C57.1535 51.8033 57.4728 50.8765 63.0082 47.9999" stroke="#AEB2BE" stroke-width="1.3" stroke-miterlimit="2.6131" stroke-linecap="round" stroke-linejoin="round"/>
<path d="M107.071 34.2741C108.984 34.6337 110.292 35.3528 110.996 36.4316C113.412 40.2071 107.876 47.3087 97.7116 54.7698C93.1826 58.0959 87.7479 61.422 81.7093 64.5682C79.5958 65.647 77.4824 66.6358 75.3689 67.6246C63.8956 72.8385 53.2274 75.715 46.4844 75.6252" stroke="#AEB2BE" stroke-width="1.3" stroke-miterlimit="2.6131" stroke-linecap="round" stroke-linejoin="round"/>
<path d="M93.9941 35.0154C97.6099 34.4377 100.874 34.0991 103.285 34.0791" stroke="#AEB2BE" stroke-width="1.3" stroke-miterlimit="2.6131" stroke-linecap="round" stroke-linejoin="round"/>
<path d="M107.173 63.1299C104.859 60.6129 101.739 57.8262 97.9141 55.0395" stroke="#B5B8C3" stroke-width="1.3" stroke-miterlimit="2.6131" stroke-linecap="round" stroke-linejoin="round"/>
<path d="M51.619 34.3639C45.5805 33.465 41.3535 34.0943 39.8438 36.4315C37.4284 40.207 42.9637 47.3985 53.1287 54.7698C57.6576 58.0958 63.0923 61.4219 69.1309 64.5682C71.2444 65.6469 73.3579 66.6357 75.4714 67.6246C92.6814 75.4453 107.979 77.9623 111.099 73.198C112.206 71.49 111.602 68.973 109.589 66.0065" stroke="#AEB2BE" stroke-width="1.3" stroke-miterlimit="2.6131" stroke-linecap="round" stroke-linejoin="round"/>
<path d="M58.6895 35.9518C57.6823 35.5304 56.7455 35.2261 55.9023 35.0154" stroke="#AEB2BE" stroke-width="1.3" stroke-miterlimit="2.6131" stroke-linecap="round" stroke-linejoin="round"/>
<path d="M51.6172 34.364C51.8185 33.555 52.6236 32.9257 53.6301 32.9257C54.7371 32.9257 55.6429 33.7348 55.6429 34.7236C55.6429 34.9034 55.6429 34.9933 55.6429 35.0832C55.4417 35.8922 54.6365 36.4316 53.7307 36.4316C52.6236 36.4316 51.7178 35.6225 51.7178 34.6337C51.6172 34.6337 51.6172 34.5438 51.6172 34.364Z" stroke="#FD2E56" stroke-width="1.3" stroke-miterlimit="10" stroke-linecap="round" stroke-linejoin="round"/>
<path d="M107.172 63.1299C107.474 62.8602 107.978 62.7703 108.38 62.7703C109.487 62.7703 110.393 63.5794 110.393 64.5682C110.393 65.1975 109.99 65.7368 109.487 66.0964C109.185 66.2762 108.783 66.3661 108.38 66.3661C107.273 66.3661 106.367 65.557 106.367 64.5682C106.367 63.939 106.669 63.3996 107.172 63.1299Z" stroke="#FD2E56" stroke-width="1.3" stroke-miterlimit="10" stroke-linecap="round" stroke-linejoin="round"/>
<path d="M42.6612 75.0857C42.8625 74.2767 43.6677 73.7373 44.5735 73.7373C45.6806 73.7373 46.5864 74.5463 46.5864 75.5352V75.6251C46.4858 76.524 45.6806 77.2432 44.5735 77.2432C43.4664 77.2432 42.5605 76.4341 42.5605 75.4453C42.5605 75.3554 42.5606 75.2655 42.6612 75.0857Z" stroke="#FD2E56" stroke-width="1.3" stroke-miterlimit="10" stroke-linecap="round" stroke-linejoin="round"/>
<path d="M103.146 34.0044C103.146 33.0156 104.052 32.2065 105.159 32.2065C106.266 32.2065 107.172 33.0156 107.172 34.0044C107.172 34.0943 107.172 34.1842 107.172 34.2741C107.072 35.173 106.166 35.8022 105.159 35.8022C104.052 35.8022 103.146 35.0831 103.146 34.0044ZM103.146 34.0044C103.146 34.0943 103.146 34.0943 103.146 34.0044Z" stroke="#FD2E56" stroke-width="1.3" stroke-miterlimit="10" stroke-linecap="round" stroke-linejoin="round"/>
<path d="M94.7004 113.836H56.4889C56.1087 113.836 55.7285 113.707 55.5383 113.449C55.3482 113.191 55.1582 112.934 55.3483 112.676L61.0515 98.2431C61.2416 97.8565 61.6218 97.5988 62.1921 97.5988H89.1873C89.7576 97.5988 90.3279 97.8565 90.3279 98.2431L95.8411 112.547C96.0312 112.676 96.0311 112.805 96.0311 112.934C96.0311 113.449 95.4608 113.836 94.7004 113.836ZM58.1999 112.161H93.1795L88.2368 99.4029H63.1426L58.1999 112.161Z" fill="#A6ABB8"/>
<path d="M111.619 117.315H39.7585C38.9981 117.315 38.4277 116.929 38.4277 116.413V112.934C38.4277 112.418 38.9981 112.032 39.7585 112.032H111.619C112.379 112.032 112.95 112.418 112.95 112.934V116.413C112.76 116.929 112.189 117.315 111.619 117.315ZM40.8991 115.64H110.288V113.836H40.8991V115.64Z" fill="#A6ABB8"/>
</g>
</svg>

<svg width="151" height="118" fill="none" xmlns="http://www.w3.org/2000/svg"><g opacity=".9"><path d="M149.567 98.351H1.334c-.762 0-1.334-.493-1.334-1.15V1.15C0 .493.572 0 1.334 0h148.233c.762 0 1.334.493 1.334 1.15v96.052c-.191.656-.762 1.149-1.334 1.149zM2.477 96.216h145.757V2.3H2.477v93.917z" fill="#A6ABB8"/><path d="M75.949 56.624c-10.007 0-18.187-8.244-18.187-18.329 0-10.016 8.18-18.26 18.187-18.26 10.006 0 18.187 8.244 18.187 18.329 0 10.084-8.181 18.26-18.187 18.26zm0-35.704c-9.533 0-17.308 7.836-17.308 17.444 0 9.607 7.775 17.443 17.308 17.443s17.308-7.836 17.308-17.444c0-9.607-7.775-17.443-17.308-17.443z" fill="#B5B8C3"/><path d="M75.95 56.624c-3.178 0-6.085-2.998-7.843-7.972-.067-.136 0-.204 0-.34.068-.137.136-.205.27-.205.542-.136.88-.613.947-1.09.068-.409-.067-.818-.338-1.158a1.395 1.395 0 0 0-1.42-.477c-.135 0-.202 0-.338-.068-.067-.069-.202-.137-.202-.273-.406-2.112-.676-4.36-.676-6.677 0-2.453.27-4.838.743-7.087 0-.136.068-.204.203-.272.068-.069.203-.069.338-.069a1.435 1.435 0 0 0 1.758-1.158v-.272c0-.614-.406-1.159-.947-1.363a.932.932 0 0 1-.27-.205c-.067-.136-.067-.204 0-.34 1.826-4.77 4.665-7.564 7.775-7.564 3.245 0 6.288 3.135 8.046 8.381.135.341.203.682.338 1.022.743 2.658 1.15 5.724 1.15 8.858 0 2.317-.204 4.566-.61 6.678 0 .136-.067.204-.202.272-.068.069-.203.069-.338.069s-.203-.069-.338-.069c-.744 0-1.42.614-1.42 1.431 0 .614.406 1.159 1.014 1.363.135.068.203.136.27.204.068.137.068.205 0 .341-1.825 5.11-4.732 8.04-7.91 8.04zm-6.896-7.835c1.623 4.36 4.192 7.018 6.896 7.018 2.705 0 5.274-2.59 6.896-7.018-.743-.41-1.149-1.159-1.149-2.044 0-1.295 1.082-2.385 2.366-2.317.338-1.908.541-4.02.541-6.133 0-2.861-.338-5.723-1.014-8.244-2.502.477-5.003.681-7.505.681a42.43 42.43 0 0 1-5.814-.409c-.338.954-1.217 1.567-2.231 1.5-.406 2.043-.609 4.224-.609 6.472 0 2.113.203 4.157.541 6.133.676 0 1.352.272 1.826.817.405.546.608 1.227.54 1.84-.27.75-.675 1.363-1.284 1.704zm6.964-18.943a44 44 0 0 0 7.302-.613c-.068-.204-.136-.34-.203-.545-1.623-4.838-4.327-7.768-7.167-7.768-2.637 0-5.138 2.453-6.76 6.678.675.409 1.149 1.09 1.149 1.908 1.893.272 3.786.34 5.679.34z" fill="#B5B8C3"/><path d="M93.663 38.772H58.236c-.27 0-.406-.204-.406-.408 0-.205.203-.41.406-.41h35.427c.27 0 .406.205.406.41 0 .204-.135.408-.406.408z" fill="#B5B8C3"/><path d="M75.95 56.624c-.27 0-.405-.204-.405-.408V20.443c0-.272.203-.409.406-.409.202 0 .405.205.405.41v35.704c.068.272-.135.476-.405.476z" fill="#B5B8C3"/><path d="M68.039 31.89a2.289 2.289 0 0 1-2.299-2.316c-1.42-.34-2.907-.75-4.327-1.227-.203-.068-.338-.34-.27-.545.067-.204.338-.34.54-.272 1.42.477 2.84.886 4.192 1.226.338-.817 1.15-1.43 2.096-1.43 1.217 0 2.231 1.021 2.299 2.248 6.626.886 13.319.204 19.877-2.044.203-.068.473.068.541.272.068.205-.068.477-.27.545-6.694 2.317-13.522 2.998-20.283 2.044-.27.886-1.15 1.5-2.096 1.5zm0-3.747c-.676 0-1.217.477-1.352 1.158v.273c0 .75.608 1.43 1.42 1.43.675 0 1.284-.476 1.352-1.158v-.204c0-.818-.677-1.499-1.42-1.499zM90.283 48.857h-.135c-1.488-.477-2.975-.954-4.53-1.295-.203-.068-.406-.272-.338-.545.068-.272.27-.409.54-.34 1.556.34 3.11.817 4.598 1.294.203.068.338.34.27.545 0 .273-.202.34-.405.34zm-28.666 0c-.203 0-.338-.136-.406-.273-.068-.204.068-.477.27-.545 1.555-.545 3.11-.954 4.598-1.294.203-.069.473.068.54.34.068.205-.067.477-.337.545-1.488.341-2.975.75-4.53 1.295-.068-.068-.135-.068-.135-.068zm8.113-1.976c-.203 0-.406-.136-.406-.409-.067-.273.135-.477.338-.477a42.744 42.744 0 0 1 12.508 0c.27.068.406.273.338.477-.068.273-.27.409-.473.34a43.82 43.82 0 0 0-12.305.069c.067 0 .067 0 0 0z" fill="#B5B8C3"/><path d="M83.928 49.061a2.289 2.289 0 0 1-2.3-2.316 2.289 2.289 0 0 1 2.3-2.317c.676 0 1.284.272 1.758.818.405.545.608 1.158.54 1.84-.203 1.158-1.149 1.975-2.298 1.975zm0-3.747c-.744 0-1.42.613-1.42 1.43 0 .75.608 1.431 1.42 1.431.676 0 1.284-.476 1.352-1.158.067-.409-.068-.818-.338-1.158-.203-.34-.541-.545-1.014-.545zM67.973 49.061a2.289 2.289 0 0 1-2.3-2.316 2.289 2.289 0 0 1 2.3-2.317c.676 0 1.284.272 1.758.818.405.545.608 1.226.54 1.84-.27 1.158-1.217 1.975-2.298 1.975zm0-3.747c-.744 0-1.42.613-1.42 1.43 0 .75.608 1.431 1.42 1.431.676 0 1.284-.476 1.352-1.158.067-.409-.068-.818-.338-1.158-.27-.34-.609-.545-1.014-.545z" fill="#FE1845"/><path d="M42.56 75.086c-1.308-.36-2.214-1.079-2.818-1.888-2.415-3.776 3.12-10.877 13.285-18.338 4.127-3.057 4.446-3.983 9.981-6.86M107.071 34.274c1.913.36 3.221 1.079 3.925 2.158 2.416 3.775-3.12 10.877-13.284 18.338-4.53 3.326-9.964 6.652-16.003 9.798-2.113 1.079-4.227 2.068-6.34 3.057-11.473 5.213-22.142 8.09-28.885 8M93.994 35.015c3.616-.577 6.88-.916 9.291-.936" stroke="#AEB2BE" stroke-width="1.3" stroke-miterlimit="2.613" stroke-linecap="round" stroke-linejoin="round"/><path d="M107.173 63.13c-2.314-2.517-5.434-5.304-9.259-8.09" stroke="#B5B8C3" stroke-width="1.3" stroke-miterlimit="2.613" stroke-linecap="round" stroke-linejoin="round"/><path d="M51.619 34.364c-6.038-.899-10.266-.27-11.775 2.068-2.416 3.775 3.12 10.966 13.285 18.338 4.529 3.326 9.963 6.652 16.002 9.798 2.113 1.079 4.227 2.068 6.34 3.057 17.21 7.82 32.508 10.337 35.628 5.573 1.107-1.708.503-4.225-1.51-7.191M58.69 35.952a19.502 19.502 0 0 0-2.788-.937" stroke="#AEB2BE" stroke-width="1.3" stroke-miterlimit="2.613" stroke-linecap="round" stroke-linejoin="round"/><path d="M51.617 34.364c.202-.809 1.007-1.438 2.013-1.438 1.107 0 2.013.809 2.013 1.798v.36c-.201.808-1.007 1.348-1.912 1.348-1.107 0-2.013-.81-2.013-1.798-.1 0-.1-.09-.1-.27zM107.172 63.13c.302-.27.806-.36 1.208-.36 1.107 0 2.013.81 2.013 1.798 0 .63-.403 1.169-.906 1.528-.302.18-.704.27-1.107.27-1.107 0-2.013-.809-2.013-1.798 0-.629.302-1.168.805-1.438zM42.661 75.086c.201-.81 1.007-1.349 1.913-1.349 1.107 0 2.012.81 2.012 1.798v.09c-.1.899-.905 1.618-2.012 1.618-1.108 0-2.014-.809-2.014-1.798 0-.09 0-.18.101-.36zM103.146 34.004c0-.988.906-1.797 2.013-1.797 1.107 0 2.013.809 2.013 1.797v.27c-.1.899-1.006 1.528-2.013 1.528-1.107 0-2.013-.719-2.013-1.798zm0 0c0 .09 0 .09 0 0z" stroke="#FD2E56" stroke-width="1.3" stroke-miterlimit="10" stroke-linecap="round" stroke-linejoin="round"/><path d="M94.7 113.836H56.49c-.38 0-.76-.129-.95-.387-.19-.258-.38-.515-.19-.773l5.703-14.433c.19-.386.57-.644 1.14-.644h26.995c.57 0 1.14.257 1.14.644l5.514 14.304c.19.129.19.258.19.387 0 .515-.57.902-1.33.902zm-36.5-1.675h34.98l-4.943-12.758H63.143L58.2 112.16z" fill="#A6ABB8"/><path d="M111.619 117.315h-71.86c-.76 0-1.331-.386-1.331-.902v-3.479c0-.516.57-.902 1.33-.902h71.861c.76 0 1.331.386 1.331.902v3.479c-.19.516-.761.902-1.331.902zm-70.72-1.675h69.389v-1.804H40.899v1.804z" fill="#A6ABB8"/></g></svg>
